X: 15
T: Boys Of The Lough, The
Z: AdamM
S: https://thesession.org/tunes/343#setting48426
R: reel
M: 4/4
L: 1/8
K: Dmaj
|:AF F2 A2 AB|df fd ef d2|AF F2 dF F2|FE ED EF GB|
AF F2 A2 AB|df fd ef d2|AF F2 dB AF|GF EG FD D2:|
a2af gfef|dB BA Be d2|AF F2 dF F2|GB FB EF GE|
D2af gfef|dB BA Be d2|AF F2 dF F2|GF EG FD D2|
a2af gfef|dB BA Be d2|AF F2 AB de|fdgf e2 fg|
ab gb f2 fe|d2 fd ef dB|AF F2 dF F2|GFEG FD D2||

